X:156
T:One For the Road
B:Terry "Cuz" Teahan "Sliabh Luachra on Parade" 1980
Z:Patrick Cavanagh
M:4/4
L:1/8
R:Hornpipe
K:G
| DGBG dGBG | efge dBAB | GFGA B/c/d BG | A/B/c AF GFEF | 
DGBG dGBG | efge dBAB | GBdg ecAF |[1] G4 G4 :|[2] G4 G2 | 
|: d/e/f | gBeg edBA | GBdg edBd | efge dBAB | c/B/A BG A4 | 
BDGB d2ed | BcBc dedc | BgdB dcAF | G2 A/G/F G2 :|| 

